logos/undertow.svg

<?xml version="1.0" encoding="UTF-8" standalone="no"?>
<svg width="256px" height="146px" viewBox="0 0 256 146" version="1.1" xmlns="http://www.w3.org/2000/svg" xmlns:xlink="http://www.w3.org/1999/xlink" preserveAspectRatio="xMidYMid">
	<g>
		<path d="M146.8822,122.2175 C104.8762,122.2175 81.4412,99.3795 80.9002,57.9085 C80.7892,49.3735 81.7672,19.6755 83.6332,7.9545 C83.6332,7.9545 102.2802,0.0005 102.6892,0.0005 C102.8182,0.0005 119.4352,11.6905 119.4352,11.6905 C118.5422,21.6935 118.1152,52.2995 118.1812,57.4205 C118.5072,82.3185 128.3652,94.9435 147.4732,94.9415 L148.0332,94.9385 C172.4992,94.6175 177.3662,74.0725 177.1392,56.8915 C177.0962,53.4135 176.1152,19.4745 175.3852,12.0125 L193.6362,0.2345 L212.2912,8.4035 C213.0142,15.4535 214.1132,51.4375 214.1782,56.4055 C214.7292,98.2765 191.3642,121.6435 148.3932,122.2035 C147.8842,122.2155 147.3822,122.2175 146.8822,122.2175" fill="#8F9495"></path>
		<path d="M234.6783,72.0283 C234.6783,72.0283 239.1713,86.5303 245.9713,70.7473 C252.7713,54.9643 249.3263,32.4583 249.3263,32.4583 C249.3263,32.4583 270.7213,77.9643 236.8953,111.6193 C236.8953,111.6193 229.3903,120.2133 213.1073,125.0643 C213.1073,125.0673 238.6133,103.5693 234.6783,72.0283" fill="#496B8C"></path>
		<path d="M50.3265,90.2505 C90.3885,106.1775 110.6385,140.1795 170.5525,127.3965 C230.4665,114.6145 221.6795,53.9035 221.6795,53.9035 C221.6795,53.9035 234.8595,84.4575 214.4885,116.2115 C196.6265,144.0575 141.9955,166.5405 71.8965,113.4165 C71.8965,113.4165 31.1545,79.0655 -0.0005,97.0415 C-0.0015,97.0405 17.6725,77.2685 50.3265,90.2505" fill="#4A5D75"></path>
		<path d="M82.8168,97.5017 C80.5168,93.7847 77.3168,88.0767 76.1338,83.3487 C76.1338,83.3487 61.3398,69.3467 42.5898,74.3547 C33.0518,76.1047 26.8918,82.3197 26.8918,82.3197 C42.7608,77.6027 48.8128,78.8047 64.0918,87.5137 C76.8488,94.7867 92.5948,108.9027 82.8168,97.5017" fill="#4B73A2"></path>
	</g>
</svg>

<svg width="256" height="146" xmlns="http://www.w3.org/2000/svg" preserveAspectRatio="xMidYMid">
	<path d="M146.882 122.218c-42.006 0-65.44-22.839-65.982-64.31-.11-8.535.867-38.233 2.733-49.953 0 0 18.647-7.955 19.056-7.955.13 0 16.746 11.69 16.746 11.69-.893 10.004-1.32 40.61-1.254 45.73.326 24.898 10.184 37.523 29.292 37.522l.56-.003c24.466-.321 29.333-20.866 29.106-38.047-.043-3.479-1.024-37.418-1.754-44.88L193.636.235l18.655 8.168c.723 7.05 1.822 43.034 1.887 48.002.551 41.871-22.814 65.239-65.785 65.799-.509.012-1.01.014-1.51.014" fill="#8F9495"/>
	<path d="M234.678 72.028s4.493 14.502 11.293-1.28c6.8-15.784 3.355-38.29 3.355-38.29s21.395 45.506-12.43 79.161c0 0-7.506 8.594-23.789 13.445 0 .003 25.506-21.495 21.571-53.036" fill="#496B8C"/>
	<path d="M50.327 90.25c40.061 15.927 60.311 49.93 120.226 37.147 59.913-12.782 51.126-73.493 51.126-73.493s13.18 30.553-7.19 62.307c-17.863 27.847-72.494 50.33-142.593-2.794 0 0-40.742-34.352-71.897-16.376 0 0 17.674-19.772 50.328-6.79" fill="#4A5D75"/>
	<path d="M82.817 97.502c-2.3-3.717-5.5-9.425-6.683-14.153 0 0-14.794-14.002-33.544-8.994-9.538 1.75-15.698 7.965-15.698 7.965 15.869-4.717 21.92-3.515 37.2 5.194 12.757 7.273 28.503 21.389 18.725 9.988" fill="#4B73A2"/>
</svg>
